X: 19
T: The Iron Bridge
%R: waltz
B: "Le Sylphe, Twenty Four Country Dances with Figures for the Year 1818", Button & Whitaker, p.10 #1
F: http://www.vwml.org/browse/browse-collections-dance-tune-books/browse-button1818
Z: 2014 John Chambers <jc:trillian.mit.edu>
N: The Figures by Mr WILSON.
M: 3/8
L: 1/16
K: D
% - - - - - - - - - - - - - - - - - - - - - - - - - - - - -
A2 |\
.f2(ag)e2 | .c2(ba)a2 | .e2(gf)d2 | c2(eg)b2 |\
f2(ag)e2 | c2(ba)a2 | e2(gf)e2 | d4 :|
|: a2 |\
a2(^ga)=g2 | f2(^ef)=e2 | d2ceca | g2f2 a2 |\
a2(^ga)=g2 | f2(^ef)=e2 | (dcdefe) | d4 :|
% - - - - - - - - - - Dance description - - - - - - - - - -
%%center WALTZ FIGURE        (Each strain repeated
%%begintext align
%% The 1st Lady turns the 2d Gent: a la waltz 1st Gent: turns 2d Lady
%% a la waltz |: & whole poussette with sauteuse step |: .
%%endtext
%%center COUNTRY DANCE FIGURE        (Each strain repeated
%%begintext align
%% The 3 Ladies & 3 Gent: set & lead thro' set & back again |: lead down
%% the middle up again & hands 4 round with the top couple |: .
%%endtext
%%sep 1 1 450

%%sep 1 1 500
%%sep 1 1 500

